src/mixer-vertical.svg

<svg viewBox="0 0 16 16" fill="none" xmlns="http://www.w3.org/2000/svg"><path d="M7.07239 10.5749C7.0725 9.99856 6.87349 9.4399 6.50904 8.99344C6.14458 8.54698 5.63707 8.24016 5.07239 8.12489L5.07239 1.07489L4.07239 1.07489L4.07239 8.12489C3.47649 8.2098 2.93119 8.50688 2.53669 8.96155C2.14219 9.41622 1.92509 9.99795 1.92509 10.5999C1.92509 11.2018 2.14219 11.7836 2.53669 12.2382C2.93119 12.6929 3.47649 12.99 4.07239 13.0749L4.07239 15.0749L5.07239 15.0749L5.07239 13.0749C5.64558 12.958 6.15963 12.6438 6.52507 12.187C6.8905 11.7302 7.08418 11.1598 7.07239 10.5749ZM2.69489 10.6149C2.69489 10.2609 2.79989 9.91478 2.99659 9.62042C3.19329 9.32606 3.47279 9.09663 3.79989 8.96115C4.12699 8.82566 4.48689 8.79022 4.83409 8.85928C5.18132 8.92835 5.50027 9.09883 5.75061 9.34917C6.00094 9.5995 6.17142 9.91845 6.24049 10.2657C6.30956 10.6129 6.27411 10.9728 6.13863 11.2999C6.00315 11.627 5.77372 11.9065 5.47936 12.1032C5.18499 12.2999 4.83889 12.4049 4.48489 12.4049C4.01019 12.4049 3.55489 12.2163 3.21919 11.8806C2.88349 11.5449 2.69489 11.0896 2.69489 10.6149Z" fill="#111111"/><path d="M12.0724 8.07489C12.6375 7.96013 13.1456 7.65353 13.5106 7.20702C13.8755 6.76051 14.0749 6.20157 14.0749 5.62489C14.0749 5.04821 13.8755 4.48927 13.5106 4.04276C13.1456 3.59625 12.6375 3.28965 12.0724 3.17489L12.0724 1.07489L11.0724 1.07489L11.0724 3.12489C10.4765 3.2098 9.93119 3.50688 9.53671 3.96155C9.14224 4.41622 8.92505 4.99795 8.92505 5.59989C8.92505 6.20183 9.14224 6.78356 9.53671 7.23823C9.93119 7.6929 10.4765 7.98998 11.0724 8.07489L11.0724 15.0749L12.0724 15.0749L12.0724 8.07489ZM9.69489 5.61489C9.69489 5.26086 9.79987 4.91478 9.99656 4.62042C10.1932 4.32606 10.4728 4.09663 10.7999 3.96115C11.127 3.82566 11.4869 3.79022 11.8341 3.85928C12.1813 3.92835 12.5003 4.09883 12.7506 4.34917C13.0009 4.5995 13.1714 4.91845 13.2405 5.26568C13.3096 5.6129 13.2741 5.97281 13.1386 6.29989C13.0032 6.62697 12.7737 6.90653 12.4794 7.10322C12.185 7.29991 11.8389 7.40489 11.4849 7.40489C11.0102 7.40489 10.5549 7.2163 10.2192 6.88061C9.88347 6.54492 9.69489 6.08963 9.69489 5.61489Z" fill="#111111"/></svg>

<svg viewBox="0 0 16 16" fill="none" xmlns="http://www.w3.org/2000/svg"><path d="M7.072 10.575a2.5 2.5 0 0 0-2-2.45v-7.05h-1v7.05a2.5 2.5 0 0 0 0 4.95v2h1v-2a2.5 2.5 0 0 0 2-2.5Zm-4.377.04a1.79 1.79 0 1 1 3.58 0 1.79 1.79 0 0 1-3.58 0Zm9.377-2.54a2.5 2.5 0 0 0 0-4.9v-2.1h-1v2.05a2.5 2.5 0 0 0 0 4.95v7h1v-7Zm-2.377-2.46a1.79 1.79 0 1 1 3.58 0 1.79 1.79 0 0 1-3.58 0Z" fill="#111111"/></svg>
